X:47
T:Jacky Tar
C:Joe Buchanan's Scottish Tome - Page 201.1
I:201 1
Z:Carl Allison
R:Hornpipe
L:1/8
M:C
K:G
B2 | "Em"e2 e2 "C"dfge | "G"d2 B2 B2 (dB) | "D"ABde "A7"faef | "D"d2 A2 A2 (Bd) |
"Em"e2 (eg) "C"g2 (fe) | "G"dBGB d2 (BG) | "Em"GFGE "D"DEFA | "Em"G2 E2 E2 :|
GA | "Em"BGEG BGEG | "Em"BAGF E2 (FG) | "D"AFDF AFDF | "D"AGFE D2 (EF) |
"Em"GFGE "C"g2 (fe) | "G"dBGB d2 (BA) | "Em"GFGE "D"DEFA | "Em"G2 E2 E2 :|

